X:441
T:Lady Montgomery
R:Reel
C:Colonel Hugh Montgomerie
B:The Athole Collection
M:C|
L:1/8
K:B_
d|B2 BF DEFD|B2 BG ABcd|B/B/B BF DEFD|CccB ABcd:|
B/B/B fB dB f2|B/B/B fB defb|B/B/B fB dBfd|edcB ABcd|
B/B/B fB dB f2|Bgfe defg|fdec dBcA|BGFD Cccd||

